X: 3
T: Aaron's Key
R: jig
M: 6/8
L: 1/8
K: Bmin
E|FBB BB/c/d|cAA ABc|dBB Bcd|edc B/B/AG|
FBB BB/c/d|cAA ABc|dcd e/e/ee|fdB B2A|
F2B Bcd|cAE cAc|dBB BB/c/d|efd efg|
~f3 ~d3|cAA AA/B/c|dcd ede|fdB B2c||
|:d2A def|ecA a2g|~f3 fed|cde ABc|
BFB cBc|d2d ede|fed cBA|1 B/B/cA Bce:|2 B2B B2A|


Tune 2266	Setting 21495

